X: 7812
T: Come West Along The Road
R: reel
M: 4/4
K: Gmajor
d2BG dGBG|G2Bd ef (3gfe|d2BG dGBG|1 ABcd edBc:|2 ABcd edBd||
g2bg egdg|(3efg dg edBd|g2bg egdB|ABcd edBd|
g2bg egdg|(3efg dg edBd|gabg efge|dega bage||

